client/resources/iconsets/breeze/src/svg/16x16/icon_cogwheel_s.svg

<svg xmlns="http://www.w3.org/2000/svg" width="12" height="12" viewBox="0 0 16 16">
 <path style="fill:#6d6d70"
       d="M 2 2 C 1.446 2 1 2.446 1 3 C 1 3.554 1.446 4 2 4 L 14 4 C 14.554 4 15 3.554 15 3 C 15 2.446 14.554 2 14 2 L 2 2 z M 2 7 C 1.446 7 1 7.446 1 8 C 1 8.554 1.446 9 2 9 L 14 9 C 14.554 9 15 8.554 15 8 C 15 7.446 14.554 7 14 7 L 2 7 z M 2 12 C 1.446 12 1 12.446 1 13 C 1 13.554 1.446 14 2 14 L 14 14 C 14.554 14 15 13.554 15 13 C 15 12.446 14.554 12 14 12 L 2 12 z "
       />
</svg>

<svg xmlns="http://www.w3.org/2000/svg" width="12" height="12" viewBox="0 0 16 16"><path d="M2 2a1 1 0 0 0-1 1 1 1 0 0 0 1 1h12a1 1 0 0 0 1-1 1 1 0 0 0-1-1H2zm0 5a1 1 0 1 0 0 2h12a1 1 0 1 0 0-2H2zm0 5a1 1 0 1 0 0 2h12a1 1 0 1 0 0-2H2z" fill="#6d6d70"/></svg>
